X: 21419
T: Kesh, The
R: jig
M: 6/8
K: Gmajor
|:"G"G G/G/G GAB|"D"A A/A/A ABd|"G"E D/D/D "C" GDD|"G" edB "D"dBA|
"G"G G/G/G GAB|"D"A A/A/A ABd|"G"E D/D/D "C" GDB||"D"AGF"G" G2 A:|
|:"G"B A/B/B dBd|"C"EGE "G"dBA|"G"B A/B/B dBG|"D"A B/A/A A2 A|
"G"B A/B/B dBd|"C"EGE "G"dBA|"G" G G/F/G "D"AGA|"G"BGF G3:|

